src/img/logos/wilderness.svg

<svg fill="none" height="40" viewBox="0 0 312 40" width="312" xmlns="http://www.w3.org/2000/svg" xmlns:xlink="http://www.w3.org/1999/xlink"><clipPath id="a"><path d="m0 0h312v40h-312z"/></clipPath><g clip-path="url(#a)" fill="#f2b046"><path d="m41.5036 8.09032h10.535l-9.0878 31.83678h-12.3006l-4.4861-12.2427-3.56 12.2137h-12.2426l-10.3615-31.43151h11.1718l4.3993 11.98211 2.2575-8.2196 2.5179 1.3314 5.6149-13.342452 4.9492 10.013952 2.1996-1.15755 4.1967 11.31635z"/><path d="m55.9177 8.11777h9.6959v31.20013h-9.6959z"/><path d="m70.6774 8.11777h9.6377v23.50123h15.0501v7.6989h-24.6878z"/><path d="m97.7975 8.11931h14.3265c2.339-.08991 4.672.29408 6.859 1.1288 1.679.7424 3.157 1.87339 4.313 3.29949 1.148 1.4868 1.985 3.1896 2.46 5.007.505 1.9766.757 4.0091.753 6.049.11 2.6334-.273 5.2642-1.129 7.7565-.7 1.7562-1.777 3.3369-3.155 4.6309-1.224 1.1633-2.715 2.0081-4.341 2.46-1.883.5447-3.83.8368-5.789.8683h-14.3264zm9.6375 7.06199v17.0472h2.374c1.459.0944 2.921-.1328 4.283-.6657.933-.5069 1.645-1.3423 1.997-2.3443.583-1.7418.828-3.5788.724-5.4124.251-2.3727-.31-4.7602-1.592-6.7725-.715-.673-1.564-1.1862-2.492-1.5055-.929-.3194-1.914-.4377-2.891-.3468z"/><path d="m129.605 8.11777h25.846v6.65673h-16.15v4.9492h15.021v6.3675h-15.021v6.1357h16.613v7.091h-26.309z"/><path d="m159.3 39.3203v-31.20008h16.063c2.3-.0778 4.6.17566 6.831.75252 1.552.52634 2.892 1.54186 3.82 2.89426.995 1.4977 1.5 3.2675 1.447 5.0649.046 1.5107-.304 3.0072-1.014 4.3414-.685 1.2538-1.683 2.3103-2.894 3.0678-1.057.5833-2.2.9937-3.386 1.2156.887.2725 1.734.6618 2.518 1.1579.572.4907 1.086 1.044 1.533 1.6496.513.6038.968 1.2528 1.361 1.9392l4.688 9.03h-10.91l-5.384-9.3774c-.407-.919-1.01-1.7387-1.765-2.4022-.684-.4847-1.506-.7383-2.345-.7235h-.781v12.6478zm9.696-18.5522h4.051c.861-.0661 1.713-.2114 2.547-.4341.313-.0527.611-.1669.88-.3358.268-.1688.5-.3893.683-.6483.398-.5131.613-1.145.608-1.7945.024-.4328-.049-.8656-.215-1.2663-.165-.4008-.418-.7592-.74-1.049-1.076-.6532-2.337-.9378-3.59-.8104h-4.138z"/><path d="m191.224 8.11777h9l11.578 17.19183v-17.19183h9.377v31.20013h-9.261l-11.577-17.1051v17.1051h-9.06z"/><path d="m225.49 8.11777h25.845v6.65673h-16.149v4.9492h14.935v6.3675h-14.994v6.1357h16.614v7.091h-26.308z"/><path d="m253.419 28.9877 9.175-.55c.096 1.2123.505 2.379 1.186 3.3863.508.6213 1.156 1.1132 1.89 1.4352.735.322 1.536.465 2.336.4171 1.132.0765 2.254-.263 3.155-.9551.343-.2636.621-.6006.817-.9863.196-.3856.302-.8103.312-1.2425-.011-.4175-.113-.8279-.298-1.2026-.184-.3746-.449-.7049-.773-.968-1.476-.9557-3.147-1.5689-4.892-1.7945-3.265-.538-6.359-1.8368-9.029-3.7914-.879-.7332-1.579-1.6555-2.05-2.6982-.471-1.0425-.701-2.1779-.672-3.3217.006-1.6184.49-3.1991 1.39-4.544 1.028-1.506 2.478-2.67429 4.167-3.35739 2.452-.91129 5.059-1.32452 7.671-1.21553 3.187-.21596 6.361.56278 9.088 2.22862 1.092.8463 1.991 1.9171 2.636 3.1403.643 1.2233 1.017 2.5705 1.097 3.9507l-9.117.5208c-.135-1.1647-.667-2.2476-1.505-3.0678-.916-.6825-2.043-1.0207-3.184-.9552-.888-.0562-1.769.1997-2.488.7236-.272.2006-.492.4624-.643.7642-.15.3018-.228.6349-.226.9723.009.2597.076.5144.196.7447.12.2305.291.4309.499.5868 1.018.5974 2.154.963 3.329 1.0708 3.109.6183 6.14 1.5893 9.029 2.8943 1.627.7661 3.01 1.9683 3.994 3.4731.829 1.3907 1.26 2.9826 1.244 4.6016.002 1.9685-.582 3.8927-1.677 5.5282-1.123 1.7077-2.724 3.0467-4.602 3.8493-2.385.9403-4.935 1.3833-7.496 1.3023-5.298 0-8.973-1.0129-10.998-3.0678-2.13-2.0869-3.4-4.8953-3.561-7.8722z"/><path d="m282.97 28.9861 9.145-.55c.105 1.215.524 2.382 1.216 3.3863.508.6213 1.154 1.1132 1.889 1.4352.734.322 1.535.465 2.336.4171 1.133.0713 2.252-.2678 3.155-.9551.337-.2665.611-.6048.802-.9902.189-.3855.291-.8086.298-1.2386-.008-.4153-.105-.8241-.285-1.1986-.179-.3746-.438-.7062-.756-.972-1.489-.9545-3.168-1.5673-4.921-1.7945-3.266-.538-6.359-1.8368-9.03-3.7914-.879-.7332-1.579-1.6555-2.05-2.6982-.472-1.0425-.701-2.1779-.671-3.3217.005-1.6184.489-3.1991 1.39-4.5439 1.032-1.513 2.493-2.68235 4.196-3.35748 2.44-.91128 5.038-1.32455 7.641-1.21553 3.187-.21983 6.364.5592 9.088 2.22862 1.096.84229 1.999 1.91219 2.644 3.13629.644 1.224 1.015 2.5732 1.09 3.9547l-9.118.5208c-.111-1.1717-.646-2.2625-1.504-3.0678-.906-.6827-2.023-1.0213-3.155-.9551-.898-.0607-1.789.1953-2.518.7235-.263.2067-.475.4706-.62.7714-.146.3009-.221.6309-.219.9651.008.2597.074.5144.195.7447.121.2305.292.4309.499.5868.987.6058 2.093.9909 3.242 1.1288 3.109.6182 6.14 1.5892 9.029 2.8942 1.624.7589 2.999 1.9631 3.965 3.4729.836 1.3878 1.268 2.9819 1.245 4.6019.011 1.9656-.563 3.89-1.649 5.528-1.133 1.7086-2.744 3.0471-4.631 3.8493-2.384.9426-4.934 1.3859-7.496 1.3025-5.297 0-8.944-1.0129-10.999-3.0678-2.09-2.1259-3.318-4.9516-3.443-7.9302z"/></g></svg>

<svg width="312" height="40" viewBox="0 0 312 40" fill="none" xmlns="http://www.w3.org/2000/svg">
<g clip-path="url(#clip0_13_309)">
<path d="M41.5036 8.09032H52.0386L42.9508 39.9271H30.6502L26.1641 27.6844L22.6041 39.8981H10.3615L0 8.46659H11.1718L15.5711 20.4487L17.8286 12.2291L20.3465 13.5605L25.9614 0.218048L30.9106 10.232L33.1102 9.07445L37.3069 20.3908L41.5036 8.09032Z" fill="#F2B046"/>
<path d="M55.9177 8.11777H65.6136V39.3179H55.9177V8.11777Z" fill="#F2B046"/>
<path d="M70.6774 8.11777H80.3151V31.619H95.3652V39.3179H70.6774V8.11777Z" fill="#F2B046"/>
<path d="M97.7975 8.11931H112.124C114.463 8.0294 116.796 8.41339 118.983 9.24811C120.662 9.99051 122.14 11.1215 123.296 12.5476C124.444 14.0344 125.281 15.7372 125.756 17.5546C126.261 19.5312 126.513 21.5637 126.509 23.6036C126.619 26.237 126.236 28.8678 125.38 31.3601C124.68 33.1163 123.603 34.697 122.225 35.991C121.001 37.1543 119.51 37.9991 117.884 38.451C116.001 38.9957 114.054 39.2878 112.095 39.3193H97.7686L97.7975 8.11931ZM107.435 15.1813V32.2285H109.809C111.268 32.3229 112.73 32.0957 114.092 31.5628C115.025 31.0559 115.737 30.2205 116.089 29.2185C116.672 27.4767 116.917 25.6397 116.813 23.8061C117.064 21.4334 116.503 19.0459 115.221 17.0336C114.506 16.3606 113.657 15.8474 112.729 15.5281C111.8 15.2087 110.815 15.0904 109.838 15.1813H107.435Z" fill="#F2B046"/>
<path d="M129.605 8.11777H155.451V14.7745H139.301V19.7237H154.322V26.0912H139.301V32.2269H155.914V39.3179H129.605V8.11777Z" fill="#F2B046"/>
<path d="M159.3 39.3203V8.12022H175.363C177.663 8.04242 179.963 8.29588 182.194 8.87274C183.746 9.39908 185.086 10.4146 186.014 11.767C187.009 13.2647 187.514 15.0345 187.461 16.8319C187.507 18.3426 187.157 19.8391 186.447 21.1733C185.762 22.4271 184.764 23.4836 183.553 24.2411C182.496 24.8244 181.353 25.2348 180.167 25.4567C181.054 25.7292 181.901 26.1185 182.685 26.6146C183.257 27.1053 183.771 27.6586 184.218 28.2642C184.731 28.868 185.186 29.517 185.579 30.2034L190.267 39.2334H179.357L173.973 29.856C173.566 28.937 172.963 28.1173 172.208 27.4538C171.524 26.9691 170.702 26.7155 169.863 26.7303H169.082V39.3781L159.3 39.3203ZM168.996 20.7681H173.047C173.908 20.702 174.76 20.5567 175.594 20.334C175.907 20.2813 176.205 20.1671 176.474 19.9982C176.742 19.8294 176.974 19.6089 177.157 19.3499C177.555 18.8368 177.77 18.2049 177.765 17.5554C177.789 17.1226 177.716 16.6898 177.55 16.2891C177.385 15.8883 177.132 15.5299 176.81 15.2401C175.734 14.5869 174.473 14.3023 173.22 14.4297H169.082L168.996 20.7681Z" fill="#F2B046"/>
<path d="M191.224 8.11777H200.224L211.802 25.3096V8.11777H221.179V39.3179H211.918L200.341 22.2128V39.3179H191.281L191.224 8.11777Z" fill="#F2B046"/>
<path d="M225.49 8.11777H251.335V14.7745H235.186V19.7237H250.121V26.0912H235.127V32.2269H251.741V39.3179H225.433L225.49 8.11777Z" fill="#F2B046"/>
<path d="M253.419 28.9877L262.594 28.4377C262.69 29.65 263.099 30.8167 263.78 31.824C264.288 32.4453 264.936 32.9372 265.67 33.2592C266.405 33.5812 267.206 33.7242 268.006 33.6763C269.138 33.7528 270.26 33.4133 271.161 32.7212C271.504 32.4576 271.782 32.1206 271.978 31.7349C272.174 31.3493 272.28 30.9246 272.29 30.4924C272.279 30.0749 272.177 29.6645 271.992 29.2898C271.808 28.9152 271.543 28.5849 271.219 28.3218C269.743 27.3661 268.072 26.7529 266.327 26.5273C263.062 25.9893 259.968 24.6905 257.298 22.7359C256.419 22.0027 255.719 21.0804 255.248 20.0377C254.777 18.9952 254.547 17.8598 254.576 16.716C254.582 15.0976 255.066 13.5169 255.966 12.172C256.994 10.666 258.444 9.49771 260.133 8.81461C262.585 7.90332 265.192 7.49009 267.804 7.59908C270.991 7.38312 274.165 8.16186 276.892 9.8277C277.984 10.674 278.883 11.7448 279.528 12.968C280.171 14.1913 280.545 15.5385 280.625 16.9187L271.508 17.4395C271.373 16.2748 270.841 15.1919 270.003 14.3717C269.087 13.6892 267.96 13.351 266.819 13.4165C265.931 13.3603 265.05 13.6162 264.331 14.1401C264.059 14.3407 263.839 14.6025 263.688 14.9043C263.538 15.2061 263.46 15.5392 263.462 15.8766C263.471 16.1363 263.538 16.391 263.658 16.6213C263.778 16.8518 263.949 17.0522 264.157 17.2081C265.175 17.8055 266.311 18.1711 267.486 18.2789C270.595 18.8972 273.626 19.8682 276.515 21.1732C278.142 21.9393 279.525 23.1415 280.509 24.6463C281.338 26.037 281.769 27.6289 281.753 29.2479C281.755 31.2164 281.171 33.1406 280.076 34.7761C278.953 36.4838 277.352 37.8228 275.474 38.6254C273.089 39.5657 270.539 40.0087 267.978 39.9277C262.68 39.9277 259.005 38.9148 256.98 36.8599C254.85 34.773 253.58 31.9646 253.419 28.9877Z" fill="#F2B046"/>
<path d="M282.97 28.9861L292.115 28.4361C292.22 29.6511 292.639 30.8181 293.331 31.8224C293.839 32.4437 294.485 32.9356 295.22 33.2576C295.954 33.5796 296.755 33.7226 297.556 33.6747C298.689 33.746 299.808 33.4069 300.711 32.7196C301.048 32.4531 301.322 32.1148 301.513 31.7294C301.702 31.3439 301.804 30.9208 301.811 30.4908C301.803 30.0755 301.706 29.6667 301.526 29.2922C301.347 28.9176 301.088 28.586 300.77 28.3202C299.281 27.3657 297.602 26.7529 295.849 26.5257C292.583 25.9877 289.49 24.6889 286.819 22.7343C285.94 22.0011 285.24 21.0788 284.769 20.0361C284.297 18.9936 284.068 17.8582 284.098 16.7144C284.103 15.096 284.587 13.5153 285.488 12.1705C286.52 10.6575 287.981 9.48815 289.684 8.81302C292.124 7.90174 294.722 7.48847 297.325 7.59749C300.512 7.37766 303.689 8.15669 306.413 9.82611C307.509 10.6684 308.412 11.7383 309.057 12.9624C309.701 14.1864 310.072 15.5356 310.147 16.9171L301.029 17.4379C300.918 16.2662 300.383 15.1754 299.525 14.3701C298.619 13.6874 297.502 13.3488 296.37 13.415C295.472 13.3543 294.581 13.6103 293.852 14.1385C293.589 14.3452 293.377 14.6091 293.232 14.9099C293.086 15.2108 293.011 15.5408 293.013 15.875C293.021 16.1347 293.087 16.3894 293.208 16.6197C293.329 16.8502 293.5 17.0506 293.707 17.2065C294.694 17.8123 295.8 18.1974 296.949 18.3353C300.058 18.9535 303.089 19.9245 305.978 21.2295C307.602 21.9884 308.977 23.1926 309.943 24.7024C310.779 26.0902 311.211 27.6843 311.188 29.3043C311.199 31.2699 310.625 33.1943 309.539 34.8323C308.406 36.5409 306.795 37.8794 304.908 38.6816C302.524 39.6242 299.974 40.0675 297.412 39.9841C292.115 39.9841 288.468 38.9712 286.413 36.9163C284.323 34.7904 283.095 31.9647 282.97 28.9861Z" fill="#F2B046"/>
</g>
<defs>
<clipPath id="clip0_13_309">
<rect width="312" height="40" fill="white"/>
</clipPath>
</defs>
</svg>
